X:1
T:7 Mélodies, Op.2
T:Le Charme
T:2. Le Charme
T:Ernest Chausson
T:Armand Silvestre
T:7 Mélodies, Op.2
T:OpenScore (CC0)
T:OpenScore (CC0)
T:OpenScore (CC0)
C:Ernest Chausson
Z:Armand Silvestre
Z:OpenScore (CC0)
%%score 1 { ( 2 4 6 ) | ( 3 5 ) }
L:1/8
Q:1/4=68
M:4/4
K:Eb
V:1 treble nm="Voice"
V:2 treble nm="Piano"
V:4 treble 
V:6 treble 
V:3 bass 
V:5 bass 
V:1
!p!"^Moderato con moto" B2 A A G2 F2 | E3 D D2!<(! D D | E E!<)! A4!>(! G F | F4!>)! G2 z2 | %4
w: Quand ton sou- ri- re|me sur- prit, Je sen-|tis fré- mir tout non|ê- tre,|
"^un peu plus lent"[Q:1/4=62] G G =A A B2 F F ||[M:2/4]"^en retenant"[Q:1/4=60] F4 || %6
w: Mais ce qui domp- tait mon es-|prit,|
[M:4/4] F F G G A2 E E ||[M:2/4]"^rit."[Q:1/4=58] E2 E z || %8
w: Je ne pus d'a- bord le con-|naî- tre.|
[M:4/4]!p![Q:1/4=80]"^Tempo I."[Q:1/4=68] c2 B B A2 G2 | B3 A A2 A A | G2 F2 E2 E D | F4 E2 z2 | %12
w: Quand ton re- gard tom-|ba sur moi, Je sen-|tis mon â- me se|fon- dre,|
!p!"^un peu plus lent"[Q:1/4=62] =E E F F B2 B A ||[M:2/4] A4 || %14
w: Mais ce que se- rait cet é-|moi,|
[M:4/4]"^en retenant"[Q:1/4=60]!<(! =A A B B B2!<)! e d ||[M:2/4]!>(! d2"^rit." d!>)! !fermata!z || %16
w: Je ne pus d'a- bord en ré-|pon- dre.|
[M:4/4][Q:1/4=80]"^Tempo I."!mf![Q:1/4=68]!>(! B2 A2 G2 F2 | E2 E!>)! D D2 D2 | %18
w: Ce qui me vain-|quit à ja- mais, Ce|
 E3 E"^rit." A[Q:1/4=62] A G F | F2 G2"^a tempo"[Q:1/4=68] z4 | z8 | z2!mp! B2 A2 G2 | %22
w: fut un plus dou- lou- reux|char- me;||Et je n'ai|
 G2 F2 F2 E2 | (E4 D2) z2 | E6 E2 | E8 | _C2"^rit."[Q:1/4=62] C2 _D2 C2 | B,4[Q:1/4=32] B,2 z2 |] %28
w: su que je t'ai-|mais, _|qu'en voy-|yant|ta pre- miè- re|lar- me.|
V:2
 z ([FB] z [EA] z [DG] z [CF] | E3 D [B,D]2) ([B,D]2 | [B,E]2 [CEA]4 [B,DG][A,DF] | %3
 [A,DF]4 [G,EG])(G,B,E) |"^un peu plus lent" ([EG]2 [E=A]2 [DB]2 [DF]2 || %5
[M:2/4]"^en retenant" [CEF]4) ||[M:4/4] ([_DF]2 [B,DG]2 [CA]2 [G,DE]2 ||[M:2/4] [A,CE]4) || %8
[M:4/4] (cF=EB AFB,[EG] | B-[GB]-[=EGB]-[CEGB] [CFA]2) ([=B,F]A | [C_EG]2) (CF [CE]2-) [CE][=B,D] | %11
 x8 |"^un peu plus lent" ([G,C=E]2 [F,CF]2 [B,EB]2- [B,EB][A,FA] ||[M:2/4] [A,FA]4) || %14
[M:4/4]"^en retenant" ([F=Ac]2 [FB]2 [EB]2 ed ||[M:2/4] d2- !fermata!d) !fermata!c || %16
[M:4/4] z ([FB] z [EA] z [DG] z [CF] | E3 D D2) ([B,D]2 | [B,E]4 [_CE_A]2 [B,DG][A,DF] | %19
 [A,DF]2 [G,EG])E DEDE | c4 c2 B2 | B4 A2 G2 | G2 F2- F2 E2 | x8 | (E4- E4 | F4 G4 | A2 A2 B2 _c2 | %27
 x4) x/ E/-[xG]/-[xB]/- [xe]/-x/-[EGBeg] |] %28
V:3
!p! (D2 C2 B,2 A,2 | G,3 F, F,2)!<(! F,2 | [G,,G,]2!<)! [F,,F,]4!>(! B,,2- | %3
 [E,,B,,]4-!>)! [E,,B,,] z2 z |!mf!!<(! (CG,F,F,,) (B,,F,B,!<)!=A, ||[M:2/4]!>(! B,=A,G,F,)!>)! || %6
[M:4/4] (B,F,E,E,,) (A,,G,,F,,E,, ||[M:2/4]"^rit."!>(! A,,C,E,A,-)!>)! || %8
[M:4/4]!p! A,2 (G,2 F,2 C,2 | F,,2 C,2 F,2) D,2 | x6"^M.D." F,2 | ([F,=B,D]4 [E,CE]4) | %12
!p! (_B,,C,A,,C, G,,C,C,,C,) ||[M:2/4] (F,,A,,C,F,) ||[M:4/4]!<(! (E,F,D,F, C,G,!<)!F,,=A, || %15
[M:2/4] B,,F,"^rit." !fermata!_A,2) ||[M:4/4]!mf!!>(! (D2 C2 B,2 A,2 | G,2!>)! _G,F, F,2) F,2 | %18
 [G,,G,]4"^rit." [F,,F,]2 B,,2- | [E,,B,,]3 E,"^a tempo"!<(! D,E,D,E,!<)! |!f!!>(! E,4 =E,4-!>)! | %21
 E,4 F,4 | F,4- F,4 | [F,-CE]4 [F,B,D]4 | [G,,E,]8 | [A,,E,]8- |"^rit." [A,,E,]8 | %27
 (E,,-(B,,-(E,-(G,- B,2- !fermata![E,,B,,E,G,B,]2)))) |] %28
V:4
 x8 | B,4 x4 | x8 | x8 | x8 ||[M:2/4] x4 ||[M:4/4] x8 ||[M:2/4] x4 ||[M:4/4] x8 | x8 | x2 C2 x4 | %11
 x8 | x8 ||[M:2/4] x4 ||[M:4/4] x6 [E=A]2 ||[M:2/4] [DB]2- [DB]2 ||[M:4/4] x8 | B,2 =A,B, B,2 x2 | %18
 x8 | x8 | C4 C4 | C4- C4 | C4- C4 | x8 | B,4 _C4 | [_CE]8- | [CE]8 | x4 x2 x !fermata!x |] %28
V:5
 x8 | z2 B,,4 A,,2 | x8 | x8 | x8 ||[M:2/4] x4 ||[M:4/4] x8 ||[M:2/4] x4 ||[M:4/4] x8 | x8 | %10
 E,2 A,2 G,2 G,,2- | ([C,,G,,]2 G,,2 C,2 =B,,2) | x8 ||[M:2/4] x4 ||[M:4/4] x8 ||[M:2/4] x4 || %16
[M:4/4] x8 | B,,6 _A,,2 | x8 | x8 | (A,,4 G,,4 | F,,6 G,,2 | A,,4 =A,,4 | B,,6 _A,,2) | x8 | x8 | %26
 x8 | x x-x-x- x2- x2 |] %28
V:6
 x8 | x8 | x8 | x8 | x8 ||[M:2/4] x4 ||[M:4/4] x8 ||[M:2/4] x4 ||[M:4/4] x8 | x8 | x8 | x8 | x8 || %13
[M:2/4] x4 ||[M:4/4] x8 ||[M:2/4] x4 ||[M:4/4] x8 | x8 | x8 | x8 | x8 | x8 | x8 | x8 | x8 | x8 | %26
 x8 | [B,EGB]4 x/ x/x/x/ x x |] %28

